icons/lines/cloud-sunny.svg

<svg xmlns="http://www.w3.org/2000/svg" width="24" height="24" viewBox="0 0 24 24" fill="none" stroke="currentColor" stroke-width="2" stroke-linecap="round" stroke-linejoin="round" >
  <path d="M20.2699 18.68C19.2799 19.59 17.9799 20.09 16.6299 20.08H5.53994C0.869942 19.74 0.859942 12.94 5.53994 12.6H5.58994C2.88994 5.06002 12.1199 1.34002 15.9999 6.03002V6.04002C16.6999 6.90002 17.2299 8.04002 17.4699 9.49002C18.7999 9.66002 19.8799 10.31 20.6499 11.23C22.3999 13.3 22.5499 16.68 20.2699 18.68Z" stroke-miterlimit="10"/>
  <path d="M7.25984 13.01C6.73984 12.75 6.16984 12.61 5.58984 12.6" stroke-miterlimit="10"/>
  <path d="M15.8501 9.92001C16.3701 9.66001 16.9401 9.52001 17.5201 9.51001" stroke-miterlimit="10"/>
  <path d="M21.97 8.5C21.97 9.6 21.46 10.59 20.65 11.23C19.88 10.31 18.8 9.66 17.47 9.49C17.23 8.04 16.7 6.9 16 6.04V6.03C16.63 5.39 17.51 5 18.47 5C20.4 5 21.97 6.57 21.97 8.5Z" stroke-miterlimit="10"/>
  </svg>

<svg xmlns="http://www.w3.org/2000/svg" width="24" height="24" viewBox="0 0 24 24" fill="none" stroke="currentColor" stroke-width="2" stroke-linecap="round" stroke-linejoin="round">
  <path d="M15.85 9.92a3.9 3.9 0 0 1 1.67-.41" />
  <path d="M20.27 18.68a5.32 5.32 0 0 1-3.64 1.4H5.54c-4.67-.34-4.68-7.14 0-7.48C2.89 5.06 12.12 1.34 16 6.03c.7.87 1.23 2.01 1.47 3.46a4.9 4.9 0 0 1 3.18 1.74c1.75 2.07 1.9 5.45-.38 7.45" />
  <path d="M21.97 8.5a3.47 3.47 0 0 1-1.32 2.73 4.9 4.9 0 0 0-3.18-1.74C17.23 8.04 16.7 6.9 16 6.04a3.43 3.43 0 0 1 5.97 2.46" />
  <path d="M7.26 13.01a3.9 3.9 0 0 0-1.67-.41" />
</svg>
